X: 34226
T: Reel St. Jean
R: reel
M: 4/4
K: Bminor
fe|:dB~B2 FBdB|dfBd f2ed|cA~A2 EAcA|ceAc e2fe|
dB~B2 FBdB|dfBd f2cB|~A3c effe|1 dfcf B2fe:|2 dfcf B2(3ABc||
|:d3c defg|a2ab afed|d'2 b2 afde|fdef edBA|
d2dc defg|a2ab afed|d'2 b2 afde|1 fdef d3A:|2 fdef d3|

